X: 36901
T: Shoes And Stockings
R: reel
M: 4/4
K: Gmajor
(3DEF|"G"G2G2 "Em"BAB2|"C"cBc2 "D"d2(3DEF|"G"G2G2 "Em"BAB2|"C"cBc2 "D"A2 (3DEF|
"G"G2G2 "Em"BAB2|"C"cBc2 "G"d2Bc|"G"d2 d2 "D"cBA2|"G"G4G2:|
|:d2|"G"gfg2 "D"aga2|"G"bab2 d3B|"C"c2Ac "G"BAGB|"D"cBc2 d2(3def|
"G"gfg2 "D"aga2|"G"bab2 d3B|"C"c2Ac "G"BAGB|"D"AGF2 "G"G2:|

